X: 1
T: John Brosnan's
M: 2/4
L: 1/8
R: polka
K: Dmaj
D>E FA|Bc d2|B>A FA|B/c/B/A/ FA|
D>E FA|Bc d2|BA FE|D2 D2:|
d>c BA|Bc d2|B>A FA|B/c/B/A/ FA|
d>c BA|Bc d2|BA FE|D2 D2:|
